!!!COM: Bach, Johann Sebastian
!!!CDT: 1685/3//-1750/7/28/
!!!OTL@@DE: Von Gott will ich nicht lassen
!!!AGN: 4-Part Chorale
!!!SCT: BH 191
!!!SCT: BWV 73
**harm	**root	**kern	**kern	**kern	**kern
!	!	!bass	!tenor	!alto	!soprno
*	*Iorgan	*Iorgan	*Iorgan	*Iorgan	*Iorgan
*	*	*clefF4	*clefF4	*clefG2	*clefG2
*k[f#c#]	*k[f#c#]	*k[f#c#]	*k[f#c#]	*k[f#c#]	*k[f#c#]
*b:	*b:	*b:	*b:	*b:	*b:
*M4/4	*M4/4	*M4/4	*M4/4	*M4/4	*M4/4
*met(c)	*met(c)	*met(c)	*met(c)	*met(c)	*met(c)
*MM60	*MM60	*MM60	*MM60	*MM60	*MM60
*>[A,A,B]	*>[A,A,B]	*>[A,A,B]	*>[A,A,B]	*>[A,A,B]	*>[A,A,B]
*>A	*>A	*>A	*>A	*>A	*>A
i	4AA	4BB	4B	4d	4f#
=1	=1	=1	=1	=1	=1
i	4AA	4B	4d	4f#	4b
Vb	4EE	4A#	4c#	4f#	4cc#
i	4AA	4B	4B	4f#	4dd
Vb/-VII	4DD	4G#	4B	4e	4ee
=2	=2	=2	=2	=2	=2
-VII	4GG	4A	4A	8e	2cc#
.	.	.	.	8f#	.
Vb/V	4BB	4E#	4G#	4g#	.
v;	4EE;	4F#;	4c#;	4f#;	4a;
III	4CC	4D	4d	4f#	4a
=3	=3	=3	=3	=3	=3
VI	4FF	4G	4B	4d	4b
iv	4DD	4E	4G	4e	4b
V7b	2EE	4AA#	4F#	8e	4cc#
.	.	.	.	8g	.
.	.	4AA#	4F#	8f#	4cc#
.	.	.	.	8e	.
=4	=4	=4	=4	=4	=4
i;	2.AA;	2.BB;	2.B;	2.d;	2.f#;
=:|!	=:|!	=:|!	=:|!	=:|!	=:|!
*>B	*>B	*>B	*>B	*>B	*>B
i	4AA	4B	4d	4b	4ff#
=5	=5	=5	=5	=5	=5
iv	4DD	4G	4e	4b	4ee
iv7	4DD	4E	4g	4b	4dd
IIIc	4CC	4A	4f#	4a	4dd
-VII	4GG	4AA	4e	4a	4cc#
=6	=6	=6	=6	=6	=6
III;	2.CC;	2.D;	2.f#;	2.a;	2.dd;
-VII	4GG	4A	4e	4a	4cc#
!!linebreak: 2
=7	=7	=7	=7	=7	=7
IIIb	4CC	4F#	4.d	4a	4dd
iiob	4BB	4E	.	4g	4ee
.	.	.	[8c#	.	.
III	4CC	4D	8c#]	4a	4ff#
.	.	.	8A	.	.
i	4AA	4BB	4d	8b	4ff#
.	.	.	.	8a	.
=8	=8	=8	=8	=8	=8
V7/-VII	2DD	2E	4d	8g#	2ee
.	.	.	.	8f#	.
.	.	.	8c#	4g#	.
.	.	.	8B	.	.
-VII;	4GG;	4AA;	4A;	4e;	4cc#;
-VII	4GG	4A	4e	4a	4cc#
=9	=9	=9	=9	=9	=9
IIIb	4CC	4F#	4d	4a	4dd
III7	4CC	4D	4A	4f#	4cc#
VI	4FF	4G	8B	4d	4b
.	.	.	8c#	.	.
VI7	4FF	4F#	4d	[4g	4b
=10	=10	=10	=10	=10	=10
iiob	4BB	4E	4e	8g]	4cc#
.	.	.	.	8f#	.
vii7/V	4DD#	4E#	4d	4g#	4b
v;	4EE;	4F#;	4c#;	4f#;	4a;
V7/III	4GG	4C#	4A	4e	4g
=11	=11	=11	=11	=11	=11
III	4CC	4D	4A	4d	4f#
ivb	4DD	4G	8B	4e	4b
.	.	.	8c#	.	.
ic	4AA	4F#	8d	4f#	4b
.	.	.	16c#	.	.
.	.	.	16B	.	.
V	4EE	4FF#	4c#	4f#	4a#
=12	=12	=12	=12	=12	=12
I;	2.AA;	2.BB;	2.d#;	2.f#;	2.b;
==	==	==	==	==	==
*-	*-	*-	*-	*-	*-
!!chor2scor: -l 2 -s 0.6 -o %b.pmx
!!!YEC: Copyright 2001 by Craig Stuart Sapp
!!!license: GNU General Public License (http://www.gnu.org/copyleft/gpl.html)
!!!SMA: 371 Bach Chorales, edited by Ludwig Erk, C.F. Peters
!!!PDT: 1850, 1865
!!!ONB: Harmony and Root analysis done manually by Craig Sapp
